material/.icons/material/bell-circle.svg

<svg xmlns="http://www.w3.org/2000/svg" viewBox="0 0 24 24"><path d="M12 2a10 10 0 0110 10 10 10 0 01-10 10A10 10 0 012 12 10 10 0 0112 2m5 14v-1l-1-1v-2.61c0-1.09-.27-2.05-.79-2.86C14.7 7.72 13.96 7.21 13 7v-.5a1 1 0 00-1-1 1 1 0 00-1 1V7c-.96.21-1.7.72-2.21 1.53-.52.81-.79 1.77-.79 2.86V14l-1 1v1h10m-3.5 1h-3a1.5 1.5 0 001.5 1.5 1.5 1.5 0 001.5-1.5z"/></svg>

<?xml version="1.0" encoding="UTF-8"?><!DOCTYPE svg PUBLIC "-//W3C//DTD SVG 1.1//EN" "http://www.w3.org/Graphics/SVG/1.1/DTD/svg11.dtd"><svg xmlns="http://www.w3.org/2000/svg" xmlns:xlink="http://www.w3.org/1999/xlink" version="1.1" id="mdi-bell-circle" width="24" height="24" viewBox="0 0 24 24"><path d="M12,2A10,10 0 0,1 22,12A10,10 0 0,1 12,22A10,10 0 0,1 2,12A10,10 0 0,1 12,2M17,16V15L16,14V11.39C16,10.3 15.73,9.34 15.21,8.53C14.7,7.72 13.96,7.21 13,7V6.5A1,1 0 0,0 12,5.5A1,1 0 0,0 11,6.5V7C10.04,7.21 9.3,7.72 8.79,8.53C8.27,9.34 8,10.3 8,11.39V14L7,15V16H17M13.5,17H10.5A1.5,1.5 0 0,0 12,18.5A1.5,1.5 0 0,0 13.5,17Z" /></svg>
